public/uploads/logo-lamosa.svg

<svg width="150" height="31" viewBox="0 0 150 31" fill="none" xmlns="http://www.w3.org/2000/svg">
<path d="M47.4942 6.05022V18.3796H53.999C53.9204 18.6597 53.1785 21.2881 53.1317 21.4547H42.7525V6.05022H47.4942Z" fill="black"/>
<path d="M94.6328 6.05022C94.6562 6.26786 96.3078 21.185 96.3365 21.4547H91.891C91.8836 21.2204 91.6118 14.0498 91.6118 14.0498C91.5301 12.9428 91.3825 11.9681 91.3825 10.3051L91.2711 10.2874C91.2339 10.9674 90.6979 13.1427 90.39 14.1195C90.39 14.1195 88.369 20.5956 88.1015 21.4547H84.1772C84.1273 21.2745 82.1975 14.3913 82.1975 14.3913C81.9056 13.3427 81.3695 11.4475 81.3143 10.3967L81.2135 10.4082C81.2135 12.0556 81.1232 13.0522 81.0373 14.2122C81.0373 14.2184 80.8685 20.5321 80.8441 21.4547H76.2372C76.2701 21.1808 78.0248 6.26786 78.0481 6.05022H83.7674C83.8215 6.2262 85.4966 11.8255 85.4966 11.8255C85.7896 12.7793 86.1781 14.2247 86.2683 15.1046L86.4127 15.1067C86.5804 14.1612 86.8893 13.0844 87.2427 11.8452C87.2406 11.8473 88.87 6.76665 89.1014 6.05022H94.6328Z" fill="black"/>
<path d="M99.074 14.1452C99.074 8.98543 102.344 5.78124 107.609 5.78124C115.178 5.78124 115.765 11.4253 115.765 13.156C115.765 18.8406 112.965 21.722 107.448 21.722C102.204 21.722 99.074 18.8906 99.074 14.1452ZM104.232 13.6964C104.232 17.3734 105.155 18.8052 107.527 18.8052C109.83 18.8052 110.603 17.5046 110.603 13.6506C110.603 9.92992 109.813 8.67407 107.472 8.67407C105.352 8.67511 104.232 10.4121 104.232 13.6964Z" fill="black"/>
<path d="M126.708 17.1089C126.708 16.3081 126.047 15.9978 124.831 15.7072L122.744 15.2355C119.865 14.5545 118.524 13.1528 118.524 10.8213C118.524 7.85245 121.291 5.78124 125.259 5.78124C127.613 5.78124 129.837 6.30607 131.396 7.22141C131.239 7.42447 129.475 9.72582 129.361 9.87681C128.207 9.2291 126.673 8.80944 125.41 8.80944C124.236 8.80944 123.479 9.29887 123.479 10.057C123.479 10.7494 124.092 11.2358 125.304 11.5034L127.11 11.9085C129.472 12.4375 131.662 13.3132 131.662 16.1217C131.662 19.6289 128.809 21.722 124.036 21.722C121.713 21.722 119.69 21.2867 117.682 20.3672C117.791 20.1537 119.065 17.6556 119.165 17.4556C120.372 18.0523 122.257 18.6719 124.087 18.6719C126.251 18.6719 126.708 17.8222 126.708 17.1089Z" fill="black"/>
<path d="M67.757 6.05022C67.8196 6.21162 73.3701 21.1267 73.4911 21.4547H68.4087C68.3578 21.2933 67.55 18.8472 67.55 18.8472H62.5281C62.5281 18.8472 61.6789 21.2954 61.6258 21.4547H56.7111C56.8438 21.1225 62.7361 6.20642 62.7966 6.05022H67.757ZM64.3931 12.8512C64.3931 12.8543 63.3316 16.5969 63.3316 16.5969H66.8101L65.6913 12.5075C65.4535 11.6484 65.1871 10.5509 65.1807 9.91044L65.1022 9.9042C65.0852 10.5405 64.7986 11.5672 64.3931 12.8512Z" fill="black"/>
<path d="M144.268 6.05022C144.33 6.21162 149.881 21.1267 150 21.4547H144.922C144.866 21.2933 144.059 18.8472 144.059 18.8472H139.039C139.039 18.8472 138.191 21.2954 138.136 21.4547H133.222C133.352 21.1225 139.247 6.20642 139.308 6.05022H144.268ZM140.904 12.8512C140.902 12.8543 139.843 16.5969 139.843 16.5969H143.32L142.203 12.5075C141.965 11.6484 141.698 10.5509 141.69 9.91044L141.613 9.9042C141.594 10.5405 141.31 11.5672 140.904 12.8512Z" fill="black"/>
<path d="M1.48502 5.03776C1.41284 5.07421 1.34278 5.11066 1.27803 5.15023C1.19948 5.19501 1.12305 5.24187 1.05618 5.29185C1.01797 5.31892 0.982938 5.34912 0.946848 5.37724C0.226097 5.96663 0.00743042 6.79866 0 7.21103L0.0275987 16.9558L6.42837 13.3195V6.20094C6.42837 6.20094 6.42201 6.19261 6.41882 6.1874C5.92629 5.91978 5.61315 5.749 5.61103 5.749C3.70672 4.69621 2.70467 4.43691 1.48502 5.03776Z" fill="black"/>
<path d="M1.25786 4.47855L1.46061 4.6108L1.34172 4.78679L1.13898 4.65454L1.25786 4.47855Z" fill="black"/>
<path d="M11.203 1.78048C10.4228 1.30668 9.69993 1.07133 8.98131 1.07133C8.31363 1.07133 7.6502 1.27544 6.94431 1.68052L1.40759 4.57647C1.47446 4.54627 1.56044 4.51295 1.65491 4.47962C1.66341 4.4765 1.67296 4.47338 1.68251 4.47025C1.76531 4.44214 1.8566 4.41506 1.95744 4.39007C2.42237 4.26407 2.88518 4.25574 3.39363 4.36091C3.5157 4.38382 3.63777 4.41298 3.76621 4.45047C3.78107 4.45463 3.80018 4.46192 3.81929 4.46713C3.94879 4.50774 4.08466 4.55668 4.22265 4.615C4.69926 4.8014 5.22364 5.05548 5.83612 5.39392L13.2028 9.46449L19.0506 6.14159L11.203 1.78048Z" fill="black"/>
<path d="M30.6356 7.20604C30.6398 7.12481 30.643 7.04671 30.6409 6.97174C30.6398 6.88218 30.6377 6.79471 30.626 6.71244C30.6228 6.66558 30.6112 6.62289 30.6059 6.57707C30.4466 5.67111 29.8204 5.06818 29.4605 4.8547L20.8497 0L20.8529 7.25706L27.1359 10.8195C27.1359 10.8195 27.1454 10.8184 27.1507 10.8174C27.6348 10.5341 27.9405 10.354 27.9426 10.3519C29.8246 9.26163 30.5549 8.54103 30.6356 7.20604Z" fill="black"/>
<path d="M31.1929 7.3235L31.0835 7.37556L30.9838 7.17667L31.092 7.1246L31.1929 7.3235Z" fill="black"/>
<path d="M30.8659 13.5218L31.0814 7.37172C31.074 7.44357 31.0591 7.53208 31.0432 7.62893C31.0411 7.6383 31.039 7.64767 31.0379 7.65808C31.0188 7.74139 30.9997 7.83199 30.971 7.93091C30.85 8.3891 30.6271 8.78585 30.2789 9.16489C30.1972 9.25549 30.1112 9.34713 30.0136 9.43564C29.9987 9.44814 29.987 9.45959 29.9711 9.47209C29.8713 9.56268 29.7609 9.65328 29.6389 9.74075C29.2344 10.0521 28.7493 10.3697 28.1443 10.7206L20.8657 14.9381L20.8688 21.5682L28.6453 17.0884C30.2015 16.2668 30.8734 15.188 30.8659 13.5218Z" fill="black"/>
<path d="M14.2303 30.5433C14.2993 30.5871 14.3662 30.6298 14.433 30.6652C14.5116 30.7099 14.5901 30.7516 14.6676 30.786C14.7122 30.8037 14.7536 30.8193 14.7982 30.8359C15.676 31.1608 16.521 30.9359 16.8904 30.7381L25.5171 25.9073L19.1354 22.2397L12.8249 25.7511C12.8249 25.7511 12.8206 25.7605 12.8164 25.7667C12.8228 26.3186 12.827 26.6685 12.827 26.6727C12.8355 28.8168 13.0987 29.7998 14.2303 30.5433Z" fill="black"/>
<path d="M13.8503 30.9642L13.8609 30.8216L14.0774 30.8372L14.0668 30.9799L13.8503 30.9642Z" fill="black"/>
<path d="M13.6529 30.6715C13.6444 30.6674 13.637 30.6611 13.6306 30.6538C13.5648 30.5976 13.4969 30.533 13.4258 30.4591C13.084 30.1259 12.8462 29.7343 12.6923 29.248C12.6519 29.1335 12.618 29.0137 12.5872 28.8877C12.5819 28.869 12.5787 28.8523 12.5744 28.8336C12.5468 28.7024 12.5235 28.5618 12.5076 28.416C12.4375 27.9162 12.4035 27.3434 12.3993 26.6562L12.377 18.3609L6.54519 15.0099L6.54944 23.8581C6.48256 25.5898 7.09292 26.7061 8.56202 27.5402L13.8588 30.8361C13.8005 30.7944 13.7293 30.7382 13.6529 30.6715Z" fill="black"/>
</svg>

<?xml version="1.0" encoding="utf-8"?>
<!-- Generator: Adobe Illustrator 16.0.0, SVG Export Plug-In . SVG Version: 6.00 Build 0)  -->
<!DOCTYPE svg PUBLIC "-//W3C//DTD SVG 1.1//EN" "http://www.w3.org/Graphics/SVG/1.1/DTD/svg11.dtd">
<svg version="1.1" id="Layer_1" xmlns="http://www.w3.org/2000/svg" xmlns:xlink="http://www.w3.org/1999/xlink" x="0px" y="0px"
	 width="150px" height="31px" viewBox="0 0 150 31" enable-background="new 0 0 150 31" xml:space="preserve">
<path fill="#4D4D4D" d="M47.494,6.05v12.329h6.505c-0.079,0.281-0.82,2.909-0.867,3.076H42.752V6.05H47.494z"/>
<path fill="#4D4D4D" d="M94.633,6.05c0.023,0.218,1.675,15.135,1.703,15.405h-4.445c-0.007-0.234-0.279-7.405-0.279-7.405
	c-0.081-1.107-0.229-2.082-0.229-3.745l-0.111-0.018c-0.037,0.68-0.574,2.855-0.881,3.832c0,0-2.021,6.476-2.289,7.335h-3.924
	c-0.051-0.181-1.98-7.064-1.98-7.064c-0.291-1.048-0.828-2.944-0.883-3.995l-0.102,0.012c0,1.647-0.09,2.644-0.176,3.804
	c0,0.006-0.168,6.32-0.193,7.243h-4.606c0.032-0.274,1.788-15.187,1.812-15.405h5.719c0.054,0.176,1.729,5.775,1.729,5.775
	c0.293,0.954,0.682,2.399,0.771,3.279l0.145,0.002c0.168-0.945,0.477-2.022,0.83-3.261c-0.002,0.002,1.628-5.079,1.859-5.795H94.633
	z"/>
<path fill="#4D4D4D" d="M99.074,14.145c0-5.16,3.27-8.364,8.535-8.364c7.568,0,8.156,5.644,8.156,7.375
	c0,5.685-2.801,8.566-8.317,8.566C102.204,21.723,99.074,18.891,99.074,14.145z M104.232,13.696c0,3.677,0.922,5.108,3.295,5.108
	c2.303,0,3.076-1.301,3.076-5.154c0-3.721-0.791-4.977-3.131-4.977C105.352,8.675,104.232,10.412,104.232,13.696z"/>
<path fill="#4D4D4D" d="M126.708,17.109c0-0.801-0.661-1.111-1.877-1.402l-2.087-0.472c-2.879-0.681-4.221-2.083-4.221-4.414
	c0-2.969,2.768-5.04,6.735-5.04c2.354,0,4.578,0.525,6.138,1.44c-0.158,0.203-1.922,2.504-2.035,2.655
	c-1.154-0.648-2.688-1.067-3.951-1.067c-1.174,0-1.932,0.489-1.932,1.248c0,0.692,0.613,1.179,1.826,1.446l1.805,0.405
	c2.363,0.529,4.553,1.404,4.553,4.212c0,3.508-2.854,5.602-7.626,5.602c-2.323,0-4.347-0.436-6.354-1.355
	c0.109-0.213,1.383-2.711,1.483-2.912c1.207,0.598,3.092,1.217,4.922,1.217C126.251,18.672,126.708,17.822,126.708,17.109z"/>
<path fill="#4D4D4D" d="M67.757,6.05c0.063,0.161,5.613,15.077,5.734,15.405h-5.083c-0.051-0.162-0.859-2.607-0.859-2.607h-5.021
	c0,0-0.85,2.447-0.902,2.607h-4.915c0.133-0.332,6.025-15.249,6.085-15.405H67.757z M64.393,12.851c0,0.003-1.062,3.746-1.062,3.746
	h3.479l-1.119-4.089c-0.238-0.859-0.504-1.957-0.511-2.597l-0.079-0.006C65.085,10.541,64.799,11.567,64.393,12.851z"/>
<path fill="#4D4D4D" d="M144.268,6.05c0.063,0.161,5.613,15.077,5.732,15.405h-5.078c-0.056-0.162-0.863-2.607-0.863-2.607h-5.02
	c0,0-0.848,2.447-0.902,2.607h-4.914c0.129-0.332,6.024-15.249,6.086-15.405H144.268z M140.904,12.851
	c-0.002,0.003-1.062,3.746-1.062,3.746h3.478l-1.117-4.089c-0.238-0.859-0.505-1.957-0.514-2.597l-0.076-0.006
	C141.594,10.541,141.311,11.567,140.904,12.851z"/>
<path fill="#4D4D4D" d="M1.485,5.038C1.413,5.074,1.343,5.111,1.278,5.15C1.2,5.195,1.123,5.242,1.056,5.292
	C1.018,5.319,0.983,5.349,0.947,5.377C0.226,5.967,0.007,6.799,0,7.211l0.028,9.745l6.4-3.637V6.201c0,0-0.006-0.009-0.009-0.014
	C5.926,5.92,5.613,5.749,5.611,5.749C3.707,4.696,2.705,4.437,1.485,5.038z"/>
<path fill="#4D4D4D" d="M1.258,4.479L1.46,4.611L1.342,4.787L1.139,4.654L1.258,4.479z"/>
<path fill="#4D4D4D" d="M11.203,1.78C10.423,1.307,9.7,1.071,8.981,1.071c-0.668,0-1.331,0.204-2.037,0.609L1.408,4.577
	c0.067-0.03,0.153-0.064,0.247-0.097C1.664,4.477,1.673,4.474,1.683,4.47c0.083-0.028,0.174-0.055,0.275-0.08
	c0.465-0.126,0.928-0.134,1.436-0.029C3.516,4.384,3.638,4.413,3.766,4.45C3.781,4.455,3.8,4.462,3.819,4.467
	c0.129,0.041,0.265,0.089,0.403,0.148c0.477,0.186,1.001,0.44,1.613,0.779l7.367,4.07l5.848-3.323L11.203,1.78z"/>
<path fill="#4D4D4D" d="M30.636,7.206c0.004-0.081,0.007-0.159,0.005-0.234c-0.001-0.089-0.003-0.177-0.015-0.259
	c-0.003-0.047-0.015-0.089-0.02-0.135c-0.159-0.906-0.786-1.509-1.146-1.723L20.85,0l0.003,7.257l6.283,3.563
	c0,0,0.01-0.001,0.015-0.002c0.484-0.283,0.79-0.463,0.792-0.465C29.825,9.262,30.555,8.541,30.636,7.206z"/>
<path fill="#4D4D4D" d="M31.193,7.323l-0.109,0.052l-0.1-0.199l0.108-0.052L31.193,7.323z"/>
<path fill="#4D4D4D" d="M30.866,13.522l0.216-6.15c-0.007,0.072-0.022,0.161-0.039,0.257c-0.002,0.009-0.004,0.019-0.005,0.029
	C31.019,7.741,31,7.832,30.971,7.931c-0.121,0.458-0.344,0.855-0.692,1.234c-0.082,0.09-0.167,0.182-0.265,0.271
	c-0.015,0.013-0.027,0.024-0.042,0.037c-0.1,0.09-0.21,0.181-0.333,0.269c-0.404,0.312-0.889,0.629-1.494,0.98l-7.279,4.217
	l0.003,6.63l7.777-4.48C30.202,16.267,30.874,15.188,30.866,13.522z"/>
<path fill="#4D4D4D" d="M14.23,30.543c0.069,0.044,0.136,0.087,0.203,0.122c0.079,0.045,0.157,0.087,0.234,0.121
	c0.045,0.018,0.086,0.033,0.131,0.05c0.877,0.324,1.723,0.1,2.092-0.098l8.626-4.831l-6.382-3.667l-6.311,3.511
	c0,0-0.004,0.01-0.008,0.016c0.006,0.552,0.011,0.901,0.011,0.906C12.835,28.816,13.099,29.8,14.23,30.543z"/>
<path fill="#4D4D4D" d="M13.85,30.965l0.011-0.143l0.217,0.016l-0.011,0.143L13.85,30.965z"/>
<path fill="#4D4D4D" d="M13.653,30.672c-0.008-0.004-0.016-0.011-0.022-0.018c-0.065-0.057-0.133-0.121-0.205-0.195
	c-0.342-0.333-0.58-0.725-0.733-1.211c-0.041-0.115-0.074-0.234-0.105-0.36c-0.005-0.019-0.009-0.035-0.013-0.054
	c-0.027-0.132-0.051-0.271-0.066-0.418c-0.07-0.5-0.104-1.072-0.108-1.76l-0.022-8.295L6.545,15.01l0.004,8.848
	c-0.067,1.732,0.543,2.849,2.013,3.683l5.297,3.296C13.8,30.795,13.729,30.738,13.653,30.672z"/>
</svg>
